X: 19815
T: Jerry Daly's
R: hornpipe
M: 4/4
K: Adorian
|:e>d|c>AA>G A>Bc>A|G>ED>E G2 e>d|c>AA>G A>Bc>d|e>fg>e d2 e>d|
c>AA>G A>Bc>A|G>ED>E G2- G>A|B2- B>A A>GE>G|A2 A2 A2:|
|:c>e|g2- g>e g>ec>e|g2- g>e g2 e>g|a2- a>g a>ge>g|a2- a>b a2- a2|
g2 g>e d2 e>d|c>de>g a2 g>e|e>ge>d c>A (3BAG|A2 (3BAG A2:|

